assets/home/blizzard.svg

<svg width="38" height="36" viewBox="0 0 38 36" fill="none" xmlns="http://www.w3.org/2000/svg">
<path d="M20.9477 29.5322C22.2053 31.778 23.4629 34.0237 25.1696 35.9101L25.0798 36C24.7205 35.7305 24.3612 35.5508 24.0917 35.2813C22.6544 33.8441 21.4866 32.1373 20.4086 30.4306C20.3189 30.3407 20.229 30.2509 20.229 30.161C19.3307 30.5203 18.5222 31.0594 17.6239 31.3289C16.9951 31.5085 16.1867 31.6882 15.5579 31.6882C14.39 31.6882 13.7612 30.7898 14.0308 29.6221C14.1205 29.173 14.3002 28.7238 14.4799 28.1848C14.2104 28.2746 13.9409 28.4543 13.5816 28.5442C12.5036 29.0831 11.3358 29.4424 10.168 29.5322C9.62903 29.5322 9.17988 29.5322 8.6409 29.4424C7.38328 29.173 6.66464 28.2746 6.66464 26.9272C6.66464 25.4899 7.02397 24.1424 7.56295 22.9746C8.28159 21.4475 9.17988 19.9204 9.98835 18.3934C10.168 18.1238 10.168 17.9442 10.0782 17.6747C9.26972 15.6984 8.6409 13.7221 8.37141 11.5662C5.76634 11.3866 3.25109 11.5662 0.735856 12.1052C0.735856 12.1052 0.735856 12.0154 0.646027 12.0154C1.00535 11.8357 1.27484 11.5662 1.63415 11.4764C3.70025 10.9374 5.76634 10.6679 7.92226 10.6679C8.01209 10.6679 8.19176 10.6679 8.28158 10.6679C8.19176 9.76962 8.28158 8.96114 8.37141 8.15267C8.46124 7.25437 8.6409 6.4459 9.17988 5.72726C9.8087 4.82896 10.7968 4.6493 11.6053 5.36794C12.0545 5.72726 12.324 6.17641 12.773 6.62556C12.8629 5.90692 12.8629 5.18828 13.0426 4.46964C13.2222 3.30185 13.4917 2.13406 14.2104 1.14593C15.0188 0.0679642 16.1867 -0.291356 17.4443 0.247625C18.7918 0.876436 19.7798 1.86457 20.5883 3.03235C21.5765 4.46964 22.4748 5.99675 23.373 7.52387C23.4629 7.70352 23.6425 7.88318 23.8222 7.88318C25.8883 8.15267 27.9544 8.60183 29.8408 9.41029C30.1103 9.50012 30.2002 9.32046 30.2899 9.14081C31.4578 7.07471 32.6256 5.00862 33.3442 2.76287C33.3442 2.76287 33.3442 2.67304 33.5238 2.67304C33.5238 3.03235 33.5238 3.39168 33.434 3.751C32.895 5.63743 32.1764 7.25437 31.5476 8.96114C31.4578 9.32046 31.2781 9.58996 31.0985 9.94927C31.5476 10.2188 31.9069 10.4883 32.2662 10.7577C33.1645 11.3866 33.973 12.0154 34.6018 13.0034C34.6916 13.1832 34.8713 13.4526 34.9612 13.7221C35.2306 14.6204 34.9612 15.2492 34.0628 15.6085C33.7933 15.6984 33.5238 15.7883 33.1645 15.878C32.895 15.9679 32.5357 15.9679 32.1764 15.9679C32.7154 16.3272 33.1645 16.6865 33.6137 17.0459C34.6916 17.8543 35.59 18.8424 36.1289 20.1001C36.7577 21.5374 36.3984 22.7052 34.9612 23.5136C33.8832 24.1424 32.7154 24.5017 31.4578 24.5916C29.6611 24.7712 27.7747 24.7712 25.9781 24.8611C25.7984 24.8611 25.5289 24.9509 25.4392 25.1305C24.0917 26.6576 22.7442 28.2746 20.9477 29.5322ZM10.0782 11.656C10.0782 11.7459 10.0782 11.7459 10.0782 11.8357C10.0782 11.9255 10.0782 12.1052 10.0782 12.195C10.3477 14.5306 10.8867 16.6865 11.8748 18.8424C12.5934 20.5493 13.5816 22.0763 15.1087 23.334C16.1867 24.1424 16.1867 24.2322 17.2646 23.4238C20.229 21.4475 22.8341 18.9323 25.2595 16.3272C25.3493 16.2374 25.4392 16.0577 25.6188 15.9679C25.8883 16.1476 26.068 16.2374 26.2476 16.4171C26.4272 16.5967 26.6069 16.6865 26.7866 16.8662C24.5408 19.8306 21.9358 22.4357 19.2408 24.8611C19.8697 24.8611 20.5883 24.8611 21.2171 24.7712C21.8459 24.6814 22.4748 24.412 23.1934 24.2322C22.5646 24.7712 21.9358 25.0408 21.2171 25.2204C20.4985 25.4 19.7798 25.4 19.0612 25.5797C19.4206 26.3882 19.8697 27.1967 20.229 27.9152C20.3189 27.8255 20.4086 27.8255 20.4086 27.8255C22.8341 26.2085 24.8104 24.1424 26.3375 21.6272C27.2357 20.1899 27.7747 18.573 27.8646 16.8662C27.8646 16.5967 27.7747 16.4171 27.5052 16.2374C24.8104 14.8001 21.9358 13.812 19.0612 13.0034C18.1628 12.734 17.1748 12.5544 16.1867 12.2849C16.1867 11.8357 16.2764 11.3866 16.2764 10.8476C19.9595 11.3866 23.5528 12.195 27.1459 13.5425C26.5171 12.195 25.5289 11.2069 24.5408 10.3086C26.068 10.7577 26.8764 11.9255 27.7747 13.1832C28.3136 12.4645 28.8527 11.7459 29.3018 11.0272C29.212 10.9374 29.1222 10.9374 28.9426 10.8476C26.6968 9.76962 24.3612 9.14081 21.9358 8.87131C20.0494 8.69165 18.1628 8.87131 16.4561 9.58996C15.468 10.0391 15.468 9.94927 15.468 11.0272C15.468 11.2967 15.468 11.5662 15.5579 11.8357C15.7375 14.5306 16.3663 17.0459 17.0849 19.651C17.3544 20.5493 17.6239 21.3577 17.8934 22.256C17.4443 22.4357 17.0849 22.6153 16.6358 22.795C15.0188 19.4713 14.2104 15.878 13.4917 12.195C12.5934 13.3628 12.2341 14.7103 12.0545 16.0577C11.6951 14.5306 12.2341 13.1832 12.9528 11.7459C11.8748 11.8357 10.9765 11.7459 10.0782 11.656ZM15.3781 9.23063C17.4443 8.06285 19.6002 7.70352 22.0256 7.79335C21.3968 6.98488 20.8578 6.17641 20.229 5.5476C19.7798 5.00862 19.2409 4.55947 18.7019 4.20014C18.1628 3.84083 17.534 3.93066 17.0849 4.28998C16.8155 4.55947 16.4561 4.91879 16.2764 5.2781C15.6476 6.53573 15.468 7.79335 15.3781 9.23063ZM15.3781 24.5017C13.3121 23.334 11.9646 21.6272 10.8867 19.5611C10.6172 20.1899 10.3477 20.7289 10.0782 21.2678C9.8087 22.0763 9.5392 22.8848 9.44937 23.6933C9.26972 24.8611 9.8087 25.5797 10.9765 25.6696C12.5036 25.8492 13.9409 25.3103 15.3781 24.5017ZM28.5832 16.8662C28.5832 19.2018 27.7747 21.2678 26.6069 23.2441C27.5951 23.4238 29.8408 22.9746 30.829 22.5254C31.9967 21.9865 32.3561 21.0882 31.7273 19.9204C31.0086 18.6628 29.8408 17.7644 28.5832 16.8662ZM13.0426 10.5781C12.9528 9.85944 12.9528 9.14081 12.8629 8.33233C12.8629 7.88318 12.2341 7.16454 11.785 7.07471C11.4256 6.98488 10.9765 7.25437 10.6172 7.79335C10.168 8.60183 9.98835 9.50012 10.0782 10.4883C11.0663 10.5781 12.0545 10.5781 13.0426 10.5781ZM17.8036 25.8492C17.0849 26.2984 16.4561 26.7475 15.8273 27.1967C15.468 27.4662 15.2884 28.2746 15.3781 28.6339C15.5579 29.0831 16.0069 29.2627 16.6358 29.2627C17.534 29.2627 18.4324 28.8136 19.2408 28.4543C18.7019 27.556 18.2527 26.7475 17.8036 25.8492ZM28.5832 14.1713C29.212 14.4408 29.751 14.8001 30.2899 14.9797C30.6493 15.1595 31.0086 15.2492 31.3679 15.1594C32.2662 15.0696 32.7154 14.3509 32.2662 13.5425C31.817 12.6442 31.0086 12.195 30.2002 11.656C29.5714 12.5544 29.1222 13.3628 28.5832 14.1713Z" fill="#DCDCDC"/>
</svg>

<svg xmlns="http://www.w3.org/2000/svg" width="38" height="36" fill="none" xmlns:v="https://vecta.io/nano"><path d="M20.948 29.532c1.258 2.246 2.515 4.491 4.222 6.378l-.09.09c-.359-.27-.719-.449-.988-.719-1.437-1.437-2.605-3.144-3.683-4.851-.09-.09-.18-.18-.18-.27-.898.359-1.707.898-2.605 1.168-.629.18-1.437.359-2.066.359-1.168 0-1.797-.898-1.527-2.066.09-.449.269-.898.449-1.437-.27.09-.539.27-.898.359-1.078.539-2.246.898-3.414.988-.539 0-.988 0-1.527-.09-1.258-.269-1.976-1.168-1.976-2.515 0-1.437.359-2.785.898-3.953l2.425-4.581a.7.7 0 0 0 .09-.719c-.808-1.976-1.437-3.953-1.707-6.109-2.605-.18-5.12 0-7.636.539 0 0 0-.09-.09-.09.359-.18.629-.449.988-.539a24.64 24.64 0 0 1 6.288-.809h.359c-.09-.898 0-1.707.09-2.515.09-.898.269-1.707.808-2.425.629-.898 1.617-1.078 2.425-.359.449.359.719.808 1.168 1.258.09-.719.09-1.437.27-2.156.18-1.168.449-2.336 1.168-3.324.808-1.078 1.976-1.437 3.234-.898 1.348.629 2.336 1.617 3.144 2.785l2.785 4.492c.09.18.269.359.449.359 2.066.269 4.132.719 6.019 1.527.269.09.359-.09.449-.269 1.168-2.066 2.336-4.132 3.054-6.378 0 0 0-.09.18-.09 0 .359 0 .719-.09 1.078-.539 1.886-1.258 3.503-1.886 5.21-.09.359-.27.629-.449.988.449.27.808.539 1.168.808.898.629 1.707 1.258 2.336 2.246.09.18.27.449.359.719.269.898 0 1.527-.898 1.886l-.898.27c-.269.09-.629.09-.988.09.539.359.988.719 1.437 1.078 1.078.808 1.976 1.797 2.515 3.054.629 1.437.27 2.605-1.168 3.413-1.078.629-2.246.988-3.503 1.078-1.797.18-3.683.18-5.48.27-.18 0-.449.09-.539.269-1.348 1.527-2.695 3.144-4.491 4.402zM10.078 11.656v.18.359c.269 2.336.808 4.491 1.797 6.647.719 1.707 1.707 3.234 3.234 4.492 1.078.808 1.078.898 2.156.09 2.964-1.976 5.569-4.491 7.995-7.097.09-.09.18-.27.359-.359.27.18.449.27.629.449s.359.269.539.449c-2.246 2.964-4.851 5.57-7.546 7.995.629 0 1.348 0 1.976-.09s1.258-.359 1.976-.539c-.629.539-1.258.809-1.976.988s-1.437.18-2.156.359c.359.809.809 1.617 1.168 2.335.09-.09.18-.09.18-.09 2.425-1.617 4.402-3.683 5.929-6.198.898-1.437 1.437-3.054 1.527-4.761 0-.27-.09-.449-.359-.629-2.695-1.437-5.569-2.425-8.444-3.234-.898-.269-1.886-.449-2.875-.718 0-.449.09-.898.09-1.437 3.683.539 7.276 1.347 10.87 2.695-.629-1.348-1.617-2.336-2.605-3.234 1.527.449 2.336 1.617 3.234 2.875.539-.719 1.078-1.437 1.527-2.156-.09-.09-.18-.09-.359-.18-2.246-1.078-4.581-1.707-7.007-1.976-1.886-.18-3.773 0-5.48.719-.988.449-.988.359-.988 1.437 0 .269 0 .539.09.808.18 2.695.808 5.21 1.527 7.815l.808 2.605c-.449.18-.808.359-1.258.539-1.617-3.324-2.425-6.917-3.144-10.6-.898 1.168-1.258 2.515-1.437 3.863-.359-1.527.18-2.875.898-4.312-1.078.09-1.976 0-2.875-.09zm5.3-2.425c2.066-1.168 4.222-1.527 6.648-1.437-.629-.808-1.168-1.617-1.797-2.246-.449-.539-.988-.988-1.527-1.347s-1.168-.269-1.617.09c-.269.269-.629.629-.809.988-.629 1.258-.808 2.515-.898 3.953zm0 15.271c-2.066-1.168-3.413-2.875-4.491-4.941-.269.629-.539 1.168-.808 1.707-.27.808-.539 1.617-.629 2.425-.18 1.168.359 1.886 1.527 1.976 1.527.18 2.964-.359 4.402-1.168zm13.205-7.635c0 2.336-.809 4.402-1.976 6.378.988.18 3.234-.27 4.222-.719 1.168-.539 1.527-1.437.898-2.605-.719-1.258-1.886-2.156-3.144-3.054zm-15.541-6.288c-.09-.719-.09-1.437-.18-2.246 0-.449-.629-1.168-1.078-1.258-.359-.09-.809.18-1.168.719-.449.808-.629 1.707-.539 2.695.988.09 1.976.09 2.964.09zm4.761 15.271c-.719.449-1.348.898-1.976 1.348-.359.27-.539 1.078-.449 1.437.18.449.629.629 1.258.629.898 0 1.797-.449 2.605-.808-.539-.898-.988-1.707-1.437-2.605zm10.78-11.678c.629.269 1.168.629 1.707.808.359.18.719.27 1.078.18.898-.09 1.348-.809.898-1.617-.449-.898-1.258-1.348-2.066-1.886-.629.898-1.078 1.707-1.617 2.515z" fill="#dcdcdc"/></svg>
